icons/harbour-mybackup.svg

<?xml version="1.0" encoding="UTF-8" standalone="no"?>
<svg
   xmlns:svg="http://www.w3.org/2000/svg"
   xmlns="http://www.w3.org/2000/svg"
   version="1.1"
   width="86px"
   height="86px"
   viewBox="0 0 86 86"
   style="enable-background:new 0 0 86 86;"
   xml:space="preserve">
  <g>
    <rect
        style="opacity:0;fill:#ffffff;"
        width="86"
        height="86"/>
    <linearGradient
        id="SVGID_1_"
        gradientUnits="userSpaceOnUse"
        x1="12.4473"
        y1="73.355"
        x2="72.8249"
        y2="12.9775">
      <stop
          offset="0"
          style="stop-color:#cc9933;stop-opacity:1"/>
      <stop
          offset="1"
          style="stop-color:#f5d9a8;stop-opacity:1"/>
    </linearGradient>
    <ellipse
        style="fill:url(#SVGID_1_);"
        cx="43"
        cy="43"
        rx="43"
        ry="43"/>
  </g>
  <path
      style="fill:#534054;stroke-width:2.74283767;fill-opacity:1;opacity:0.8"
      d="M 43.001953 11 C 25.356901 11 11 25.355704 11 43 C 11 43.223834 11.009068 43.446582 11.013672 43.669922 C 11.013132 43.680999 11.007954 43.687684 11.007812 43.699219 C 11.004912 43.845959 11.02185 44.065009 11.025391 44.236328 C 11.026853 44.274719 11.027699 44.31319 11.029297 44.351562 C 11.078744 46.135444 11.43047 48.974231 11.947266 50.943359 C 13.148655 55.5238 14.565101 57.973114 17.5 61.648438 C 17.656345 61.845917 17.890232 61.958984 18.142578 61.958984 L 18.287109 61.953125 C 18.586084 61.89827 18.830568 61.698148 18.923828 61.410156 L 24.679688 43.976562 C 24.761975 43.726971 24.720798 43.49128 24.564453 43.277344 C 24.408108 43.06341 24.159802 43.015625 23.896484 43.015625 L 16.488281 43.015625 C 16.488278 43.0104 16.488281 43.005226 16.488281 43 C 16.488281 28.378246 28.381526 16.486328 43.003906 16.486328 C 57.623544 16.486328 69.517578 28.380989 69.517578 43 C 69.517578 57.621754 57.623544 69.513672 43.003906 69.513672 C 37.419369 69.513672 32.081213 67.802511 27.566406 64.560547 C 26.32936 63.671887 24.61875 63.957946 23.738281 65.189453 C 22.855068 66.423704 23.133673 68.134404 24.365234 69.017578 C 29.818112 72.931524 36.2654 75 43.001953 75 C 60.647006 75 75 60.647039 75 43 C 75 25.352961 60.647006 11 43.001953 11 z M 41.193359 25.103516 C 39.67928 25.103516 38.451172 26.331689 38.451172 27.845703 L 38.451172 44.867188 C 38.451172 46.381201 39.67928 47.611328 41.193359 47.611328 L 56.412109 47.611328 C 57.926187 47.611328 59.154297 46.381202 59.154297 44.867188 C 59.154297 43.353173 57.92893 42.125 56.412109 42.125 L 43.9375 42.125 L 43.9375 27.845703 C 43.9375 26.331689 42.707438 25.103516 41.193359 25.103516 z "/>
</svg>

<?xml version="1.0" encoding="utf-8" standalone="no"?>
<svg version="1.1" viewBox="0 0 86 86" xmlns="http://www.w3.org/2000/svg">
  <linearGradient id="gradient" gradientUnits="userSpaceOnUse" x1="12.5" y1="73.5" x2="73.5" y2="12.5">
    <stop offset="0" style="stop-color:#cc9933;stop-opacity:1"/>
    <stop offset="1" style="stop-color:#f5d9a8;stop-opacity:1"/>
  </linearGradient>
  <rect style="opacity:0;fill:#ffffff" width="86" height="86"/>
  <ellipse style="fill:url(#gradient);" cx="43" cy="43" rx="43" ry="43"/>
  <path style="opacity:0.8;fill:#534054" d="m 43,11 c -17.64,0 -32,14.355 -32,32 0,0.22 0,0.45 0,0.67 -0.01,0.23 0,0.48 0.015,0.68 0.05,1.78 0.4,4.62 0.92,6.59 1.2,4.58 2.62,7.03 5.55,10.705 0.16,0.2 0.39,0.31 0.64,0.31 h 0.14 c 0.3,-0.05 0.54,-0.25 0.64,-0.54 l 5.76,-17.43 c 0.08,-0.25 0.04,-0.485 -0.115,-0.7 -0.16,-0.21 -0.4,-0.26 -0.67,-0.26 L 16.49,43 c 0,-14.62 11.89,-26.51 26.52,-26.51 37.78,3.91 27.91,52.18 0,53.03 -5.58,0 -10.92,-1.71 -15.44,-4.95 -1.24,-0.89 -2.95,-0.6 -3.83,0.63 -0.88,1.23 -0.6,2.94 0.63,3.83 C 29.82,72.93 36.265,75 43,75 60.66,75 75,60.66 75,43 75,25.35 60.65,11 43,11 Z m -1.81,14.1 c -1.51,0 -2.74,1.24 -2.75,2.75 v 17 c 0,1.51 1.23,2.74 2.74,2.74 h 15.22 c 1.51,0 2.74,-1.23 2.74,-2.74 0,-1.51 -1.225,-2.74 -2.74,-2.74 H 43.94 V 27.85 C 43.92,26.28 42.74,25.115 41.19,25.1 z"/>
</svg>
